build-source/logos/franceculture.default.svg

<?xml version="1.0" encoding="UTF-8" standalone="no"?>
<!-- Created with Inkscape (http://www.inkscape.org/) -->
<svg
   xmlns:svg="http://www.w3.org/2000/svg"
   xmlns="http://www.w3.org/2000/svg"
   version="1.0"
   width="602.36218"
   height="602.36218"
   id="svg2407">
  <defs
     id="defs2409" />
  <g
     id="g6850">
    <path
       d="M 17.716527,584.6513 L 493.20539,584.6513 L 493.20539,109.16248 L 17.716527,109.16248 L 17.716527,584.6513 z"
       id="path5844"
       style="fill:#000000;fill-opacity:1;fill-rule:nonzero;stroke:none" />
    <path
       d="M 109.18842,462.06895 L 88.069273,463.78131 L 88.64006,505.44881 C 88.64006,505.44881 113.78899,506.78432 119.74799,507.16117 C 125.68429,507.52647 131.83723,507.6863 133.73228,514.8668 C 135.78724,522.65223 126.84856,528.28028 123.7435,528.28031 C 133.12713,528.28031 130.96959,528.28029 138.01319,528.28031 C 143.74391,527.22994 150.2508,520.28929 149.42894,510.01511 C 148.34446,496.43024 137.97892,493.17685 126.88283,493.17687 L 130.38998,470.98459 L 109.18842,462.06895 z M 59.529891,501.45329 C 55.728326,506.05386 51.927,513.26849 54.107408,521.14547 C 60.625803,543.15516 95.580838,552.81276 110.32999,553.39497 L 108.61763,527.70952 C 108.61764,527.70953 84.758704,530.70045 72.658007,518.00613 C 67.532334,512.65202 68.514207,507.19553 72.372613,502.30947 C 67.852075,502.11539 62.566372,501.57887 59.529891,501.45329 z"
       id="path5846"
       style="fill:#ffffff;fill-opacity:1;fill-rule:nonzero;stroke:none" />
    <path
       d="M 109.15683,493.1997 L 584.64566,493.1997 L 584.64566,17.71088 L 109.15683,17.71088 L 109.15683,493.1997 z"
       id="path5850"
       style="fill:#773694;fill-opacity:1;fill-rule:nonzero;stroke:none" />
    <path
       d="M 384.84375,327.15625 C 381.11573,327.24063 377.14835,328.72475 375,331.9375 C 373.2032,334.63828 373.34374,338.44658 373.34375,341.59375 L 369.125,341.59375 L 369.125,349.78125 L 373.34375,349.78125 L 373.34375,377.09375 L 383.90625,377.09375 L 383.90625,349.8125 L 390.34375,349.8125 L 390.34375,341.625 L 383.90625,341.625 L 383.90625,340.84375 C 383.90625,337.75236 383.91312,335.2969 387.71875,335.53125 L 391.3125,335.75 L 391.3125,327.625 L 386.40625,327.1875 C 385.88869,327.14286 385.37632,327.1442 384.84375,327.15625 z M 411.46875,339.9375 C 407.4395,340.10008 405.48363,343.85899 404.46875,347.5 L 404.34375,347.5 L 404.34375,340.65625 L 394.53125,340.65625 L 394.53125,377.09375 L 405.0625,377.09375 L 405.0625,363.1875 C 405.0625,356.7034 406.06732,350.17859 414.125,350.625 L 414.125,340.125 L 412.3125,339.9375 C 412.02512,339.91518 411.73737,339.92666 411.46875,339.9375 z M 474.71875,339.9375 C 469.41763,339.9375 466.3816,342.17878 464.25,346.84375 L 464.09375,346.84375 L 464.09375,340.6875 L 454.15625,340.6875 L 454.15625,377.09375 L 464.6875,377.09375 L 464.6875,357.53125 C 464.6875,355.22108 464.83487,353.16062 465.90625,351.0625 C 466.75442,349.44426 468.49116,348.34374 470.34375,348.34375 C 475.66719,348.34375 475.15624,353.7814 475.15625,357.53125 L 475.15625,377.09375 L 485.6875,377.09375 L 485.6875,354.5625 C 485.6875,351.27022 485.68519,346.69184 483.6875,343.96875 C 481.54474,341.02244 478.15611,339.93751 474.71875,339.9375 z M 433.8125,339.96875 C 426.14541,339.96875 417.52004,342.53608 416.4375,351.375 L 426.4375,352.28125 C 426.4375,348.68765 429.35952,347 432.71875,347 C 434.3035,347 436.09378,347.49335 437.03125,348.6875 C 438.08031,350.07137 437.96876,351.93533 437.96875,353.53125 L 437.96875,354.375 C 433.52697,354.78793 427.72527,355.09382 423.5625,356.65625 C 418.77475,358.44189 415.40625,362.12076 415.40625,367.5 C 415.40625,374.38586 420.41323,377.81251 426.875,377.8125 C 432.31004,377.8125 435.47558,375.72303 438.5,371.4375 C 438.42188,373.30126 438.53349,375.22998 438.96875,377.09375 L 449.4375,377.09375 C 448.87949,375.28579 448.71874,373.49993 448.71875,371.625 L 448.71875,354.65625 C 448.71875,350.27027 449.07126,346.27444 445.34375,343.25 C 442.40861,340.83939 437.52886,339.96875 433.8125,339.96875 z M 507.34375,339.96875 C 495.85986,339.96875 489.125,348.06744 489.125,359.25 C 489.125,369.98615 495.6701,377.81251 506.71875,377.8125 C 515.6023,377.8125 522.42193,372.44605 523.28125,363.40625 L 513.25,362.84375 C 512.87055,366.21415 511.00877,369.12499 507.28125,369.125 C 501.24356,369.125 501.18749,362.85694 501.1875,358.4375 C 501.1875,353.76136 501.88418,348.00001 507.6875,348 C 511.49315,348 513.24998,351.20774 513.25,354.5 L 523.28125,353.9375 C 522.56699,345.38876 515.82552,339.96876 507.34375,339.96875 z M 542.15625,339.96875 C 531.47316,340.48886 525.50003,348.98399 525.5,359.40625 C 525.5,370.23168 532.59641,377.81251 543.5,377.8125 C 555.84323,377.8125 560.0625,367.05575 560.0625,365.28125 L 550.3125,364.5625 C 550.3125,367.91057 547.06904,370.28125 543.84375,370.28125 C 539.24573,370.28125 536.81247,366.78777 536.8125,362.46875 L 536.90625,360.65625 L 560.28125,360.65625 C 560.37053,355.72342 559.56463,350.57124 556.5625,346.375 C 553.51576,342.23455 548.27435,339.96876 543.21875,339.96875 C 542.86441,339.96875 542.50087,339.95197 542.15625,339.96875 z M 543.625,346.84375 C 548.22302,346.84375 549.50673,350.50688 549.71875,354.46875 L 536.8125,354.46875 C 537.16963,350.28366 538.96,346.84375 543.625,346.84375 z M 438,359.65625 L 438,361.09375 C 438,363.70524 438.0468,365.82598 436.5625,368.125 C 435.32371,369.96644 433.38161,371.12501 431.25,371.125 C 428.31485,371.125 426.56251,369.21192 426.5625,366.34375 C 426.5625,361.02031 433.97115,360.11381 438,359.65625 z M 285.6875,368.5625 L 285.6875,470.28125 L 307.5,470.28125 L 307.5,368.5625 L 285.6875,368.5625 z M 349.1875,371.25 L 330.21875,372.71875 L 328.28125,394.8125 L 315.0625,394.8125 L 315.0625,412.15625 L 327.375,412.15625 L 327.375,445.40625 C 327.375,452.77201 327.39759,461.80826 333.46875,466.875 C 338.3681,470.85921 346.63643,471.78125 352.875,471.78125 C 356.89268,471.78125 360.88856,471.04014 365.0625,470.4375 L 366.53125,470.125 L 366.53125,453.71875 L 359.71875,454 C 349.19465,454.44641 349.1875,450.8523 349.1875,442.125 L 349.1875,412.15625 L 365.34375,412.15625 L 365.34375,394.8125 L 349.1875,394.8125 L 349.1875,371.25 z M 483.03125,393.4375 C 474.7003,393.78808 470.68631,401.55026 468.59375,409.0625 L 468.28125,409.0625 L 468.28125,395 L 447.96875,395 L 447.96875,470.28125 L 469.78125,470.28125 L 469.78125,441.53125 C 469.78125,428.1836 471.85115,414.70093 488.46875,415.59375 L 488.46875,393.8125 L 484.78125,393.46875 C 484.18697,393.42411 483.58665,393.41413 483.03125,393.4375 z M 170.75,393.46875 C 147.03448,393.46875 133.06249,410.22866 133.0625,433.375 C 133.0625,455.59505 146.58355,471.75001 169.40625,471.75 C 187.80949,471.75 201.8907,460.651 203.6875,441.96875 L 182.90625,440.78125 C 182.16967,447.73409 178.30548,453.84375 170.59375,453.84375 C 158.13892,453.84375 157.96875,440.77862 157.96875,431.59375 C 157.96875,421.94014 159.47148,410.09375 171.46875,410.09375 C 179.34788,410.09375 182.90626,416.76367 182.90625,423.59375 L 203.6875,422.375 C 202.20319,404.73065 188.27158,393.46874 170.75,393.46875 z M 529.6875,393.5 C 506.23983,393.5 493.06249,411.43397 493.0625,433.6875 C 493.0625,456.09727 507.7264,471.78124 530.28125,471.78125 C 555.78241,471.78125 564.53123,449.57128 564.53125,445.84375 L 544.375,444.34375 C 544.375,451.28542 537.67381,456.21876 531,456.21875 C 521.51379,456.21875 516.46876,448.96838 516.46875,440.0625 L 516.625,436.34375 L 565,436.34375 C 565.14508,426.09865 563.47739,415.43712 557.25,406.84375 C 551.02258,398.22804 540.20045,393.50001 529.6875,393.5 z M 211.09375,395 L 211.09375,442.4375 C 211.09375,449.70282 210.64972,456.82617 214.8125,463.34375 C 219.10919,470.14034 225.65211,471.78124 233.21875,471.78125 C 243.44153,471.78125 251.13854,466.89246 254.6875,457.40625 L 255,457.40625 L 255,470.28125 L 275.15625,470.28125 L 275.15625,395 L 253.375,395 L 253.375,435.46875 C 253.375,439.29671 253.64949,443.60507 252.1875,447.03125 C 250.26794,451.46187 246.09802,454.28123 241.1875,454.28125 C 233.47578,454.28125 232.875,448.50868 232.875,442.4375 L 232.875,395 L 211.09375,395 z M 373.375,395 L 373.375,442.4375 C 373.375,449.70282 372.9533,456.82617 377.09375,463.34375 C 381.4016,470.14034 387.91327,471.78124 395.46875,471.78125 C 405.71385,471.78125 413.42872,466.89246 417,457.40625 L 417.25,457.40625 L 417.25,470.28125 L 437.46875,470.28125 L 437.46875,395 L 415.625,395 L 415.625,435.46875 C 415.625,439.29671 415.97539,443.60507 414.46875,447.03125 C 412.54919,451.46187 408.39936,454.28123 403.5,454.28125 C 395.77712,454.28125 395.18751,448.50868 395.1875,442.4375 L 395.1875,395 L 373.375,395 z M 530.5625,407.71875 C 540.0487,407.71875 542.74107,415.27936 543.1875,423.4375 L 516.46875,423.4375 C 517.23881,414.85527 520.94237,407.71875 530.5625,407.71875 z"
       id="path308"
       style="fill:#ffffff" />
  </g>
</svg>

<svg xmlns="http://www.w3.org/2000/svg" viewBox="0 0 602.36 602.36"><path d="m17.717 584.65h475.49v-475.49h-475.49v475.49"/><path d="m109.19 462.07l-21.12 1.712.571 41.667c0 0 25.15 1.336 31.11 1.712 5.936.365 12.09.525 13.984 7.706 2.055 7.785-6.884 13.413-9.989 13.414 9.384 0 7.226 0 14.27 0 5.731-1.05 12.238-7.991 11.416-18.265-1.084-13.585-11.45-16.838-22.546-16.838l3.507-22.19-21.2-8.916m-49.659 39.38c-3.802 4.601-7.603 11.815-5.422 19.692 6.518 22.01 41.473 31.667 56.22 32.25l-1.712-25.685c0 0-23.859 2.991-35.96-9.703-5.126-5.354-4.144-10.811-.285-15.697-4.521-.194-9.806-.731-12.843-.856" fill="#fff"/><path d="m109.16 493.2h475.49v-475.49h-475.49v475.49" fill="#773694"/><path d="m384.84 327.16c-3.728.084-7.695 1.568-9.844 4.781-1.797 2.701-1.656 6.509-1.656 9.656h-4.219v8.188h4.219v27.313h10.563v-27.28h6.438v-8.188h-6.438v-.781c0-3.091.007-5.547 3.813-5.313l3.594.219v-8.125l-4.906-.438c-.518-.045-1.03-.043-1.563-.031m26.625 12.781c-4.03.163-5.985 3.921-7 7.563h-.125v-6.844h-9.813v36.438h10.531v-13.906c0-6.484 1-13.01 9.06-12.563v-10.5l-1.813-.188c-.287-.022-.575-.011-.844 0m63.25 0c-5.301 0-8.337 2.241-10.469 6.906h-.156v-6.156h-9.938v36.406h10.531v-19.563c0-2.31.147-4.371 1.219-6.469.848-1.618 2.585-2.719 4.438-2.719 5.323 0 4.812 5.438 4.813 9.188v19.563h10.531v-22.531c0-3.292-.002-7.871-2-10.594-2.143-2.946-5.531-4.03-8.969-4.03m-40.906.031c-7.667 0-16.292 2.567-17.375 11.406l10 .906c0-3.594 2.922-5.281 6.281-5.281 1.585 0 3.375.493 4.313 1.688 1.049 1.384.938 3.248.938 4.844v.844c-4.442.413-10.243.719-14.406 2.281-4.788 1.786-8.156 5.465-8.156 10.844 0 6.886 5.01 10.313 11.469 10.313 5.435 0 8.601-2.089 11.625-6.375-.078 1.864.033 3.792.469 5.656h10.469c-.558-1.808-.719-3.594-.719-5.469v-16.969c0-4.386.353-8.382-3.375-11.406-2.935-2.411-7.815-3.281-11.531-3.281m73.53 0c-11.484 0-18.219 8.099-18.219 19.281 0 10.736 6.545 18.563 17.594 18.563 8.884 0 15.703-5.366 16.563-14.406l-10.03-.563c-.379 3.37-2.241 6.281-5.969 6.281-6.04 0-6.094-6.268-6.094-10.688 0-4.676.697-10.437 6.5-10.438 3.806 0 5.562 3.208 5.563 6.5l10.03-.563c-.714-8.549-7.456-13.969-15.938-13.969m34.813 0c-10.683.52-16.656 9.02-16.656 19.438 0 10.825 7.096 18.406 18 18.406 12.343 0 16.563-10.757 16.563-12.531l-9.75-.719c0 3.348-3.243 5.719-6.469 5.719-4.598 0-7.03-3.493-7.03-7.813l.094-1.813h23.375c.089-4.933-.717-10.09-3.719-14.281-3.047-4.14-8.288-6.406-13.344-6.406-.354 0-.718-.017-1.063 0m1.469 6.875c4.598 0 5.882 3.663 6.094 7.625h-12.906c.357-4.185 2.148-7.625 6.813-7.625m-105.62 12.813v1.438c0 2.611.047 4.732-1.438 7.03-1.239 1.841-3.181 3-5.313 3-2.935 0-4.687-1.913-4.688-4.781 0-5.323 7.409-6.23 11.438-6.688m-152.31 8.906v101.72h21.813v-101.72h-21.813m63.5 2.688l-18.969 1.469-1.938 22.09h-13.219v17.344h12.313v33.25c0 7.366.023 16.402 6.094 21.469 4.899 3.984 13.168 4.906 19.406 4.906 4.02 0 8.01-.741 12.188-1.344l1.469-.313v-16.406l-6.813.281c-10.524.446-10.531-3.148-10.531-11.875v-29.969h16.16v-17.344h-16.16v-23.563m133.84 22.19c-8.331.351-12.345 8.113-14.438 15.625h-.313v-14.06h-20.313v75.28h21.813v-28.75c0-13.348 2.07-26.83 18.688-25.938v-21.781l-3.688-.344c-.594-.045-1.195-.055-1.75-.031m-312.28.031c-23.716 0-37.688 16.76-37.688 39.906 0 22.22 13.521 38.38 36.34 38.37 18.403 0 32.484-11.1 34.28-29.781l-20.781-1.188c-.737 6.953-4.601 13.06-12.313 13.06-12.455 0-12.625-13.07-12.625-22.25 0-9.654 1.503-21.5 13.5-21.5 7.879 0 11.438 6.67 11.438 13.5l20.781-1.219c-1.484-17.644-15.416-28.906-32.938-28.906m358.94.031c-23.448 0-36.625 17.934-36.625 40.19 0 22.41 14.664 38.09 37.22 38.09 25.501 0 34.25-22.21 34.25-25.938l-20.16-1.5c0 6.942-6.701 11.875-13.375 11.875-9.486 0-14.531-7.25-14.531-16.16l.156-3.719h48.37c.145-10.245-1.523-20.907-7.75-29.5-6.227-8.616-17.05-13.344-27.563-13.344m-318.59 1.5v47.44c0 7.265-.444 14.389 3.719 20.906 4.297 6.797 10.84 8.437 18.406 8.438 10.223 0 17.92-4.889 21.469-14.375h.313v12.875h20.16v-75.28h-21.781v40.469c0 3.828.274 8.136-1.188 11.563-1.92 4.431-6.089 7.25-11 7.25-7.712 0-8.313-5.773-8.313-11.844v-47.44h-21.781m162.28 0v47.44c0 7.265-.422 14.389 3.719 20.906 4.308 6.797 10.82 8.437 18.375 8.438 10.245 0 17.96-4.889 21.531-14.375h.25v12.875h20.22v-75.28h-21.844v40.469c0 3.828.35 8.136-1.156 11.563-1.92 4.431-6.069 7.25-10.969 7.25-7.723 0-8.312-5.773-8.313-11.844v-47.44h-21.813m157.19 12.719c9.486 0 12.179 7.561 12.625 15.719h-26.719c.77-8.582 4.474-15.719 14.09-15.719" fill="#fff"/></svg>
